X: 505
T: Joliette, Gigue De
R: jig
M: 6/8
L: 1/8
K: Fmaj
"F"CFA c=Bc|"C"=Bcd "F"cAF|CFA c=Bc|"C"=Bcd "F"c3|Acf "C"e2e|GBd "F"cAF|
"C"c=Bc edc|BAG "F"F3:||:"F"CFA c=Bc|"C"dEE E3|dEE dEE|dBd "F"cAF|
CFA c=Bc|"C"dEE E3|c=Bc edc|BAG "F"F3:||:"F"faf "C"ege|"Dm"dfd "F"c2A|
"Bb"BdB "F"AcA|"C"GFG "F"A2F|"F"faf "C"ege|"Dm"dfd "C"c2c|c=Bc edc|BAG "F"F3:|

